Origami/32x32/apps/revolt.svg

<svg width="32" height="32" version="1.1" viewBox="0 0 32 32" xmlns="http://www.w3.org/2000/svg">
 <circle cx="16" cy="17" r="14" style="opacity:.2"/>
 <circle cx="16" cy="16" r="14" style="fill:#4f4f4f"/>
 <path d="M 16 2 A 14 14 0 0 0 2 16 A 14 14 0 0 0 2.0214844 16.585938 A 14 14 0 0 1 16 3 A 14 14 0 0 1 29.978516 16.414062 A 14 14 0 0 0 30 16 A 14 14 0 0 0 16 2 z" style="fill:#ffffff;opacity:.1"/>
 <path d="M 16,5 A 2,2 0 0 0 14,7 2,2 0 0 0 16,9 2,2 0 0 0 18,7 2,2 0 0 0 16,5 Z M 10.953125,6.3398438 A 2,2 0 0 0 10,6.6074219 2,2 0 0 0 9.2675781,9.3398438 2,2 0 0 0 12,10.072266 a 2,2 0 0 0 0.732422,-2.7324222 2,2 0 0 0 -1.779297,-1 z m 9.953125,0.00195 A 2,2 0 0 0 19.267578,7.3398438 2,2 0 0 0 20,10.072266 2,2 0 0 0 22.732422,9.3398438 2,2 0 0 0 22,6.6074219 2,2 0 0 0 20.90625,6.3417969 Z M 24.613281,10 A 2,2 0 0 0 23.660156,10.267578 2,2 0 0 0 22.927734,13 2,2 0 0 0 25.660156,13.732422 2,2 0 0 0 26.392578,11 2,2 0 0 0 24.613281,10 Z m -17.3671872,0.002 A 2,2 0 0 0 5.6074219,11 2,2 0 0 0 6.3398438,13.732422 2,2 0 0 0 9.0722656,13 2,2 0 0 0 8.3398438,10.267578 2,2 0 0 0 7.2460938,10.001953 Z M 6,15 a 2,2 0 0 0 -2,2 2,2 0 0 0 2,2 2,2 0 0 0 2,-2 2,2 0 0 0 -2,-2 z m 20,0 a 2,2 0 0 0 -2,2 2,2 0 0 0 2,2 2,2 0 0 0 2,-2 2,2 0 0 0 -2,-2 z M 7.2929688,20 A 2,2 0 0 0 6.3398438,20.267578 2,2 0 0 0 5.6074219,23 2,2 0 0 0 8.3398438,23.732422 2,2 0 0 0 9.0722656,21 2,2 0 0 0 7.2929688,20 Z m 17.2734372,0.002 A 2,2 0 0 0 22.927734,21 2,2 0 0 0 23.660156,23.732422 2,2 0 0 0 26.392578,23 2,2 0 0 0 25.660156,20.267578 2,2 0 0 0 24.566406,20.001953 Z m -3.613281,3.658203 A 2,2 0 0 0 20,23.927734 2,2 0 0 0 19.267578,26.660156 2,2 0 0 0 22,27.392578 a 2,2 0 0 0 0.732422,-2.732422 2,2 0 0 0 -1.779297,-1 z m -10.046875,0.002 A 2,2 0 0 0 9.2675781,24.660156 2,2 0 0 0 10,27.392578 2,2 0 0 0 12.732422,26.660156 2,2 0 0 0 12,23.927734 2,2 0 0 0 10.90625,23.662109 Z M 16,25 a 2,2 0 0 0 -2,2 2,2 0 0 0 2,2 2,2 0 0 0 2,-2 2,2 0 0 0 -2,-2 z" style="opacity:.2"/>
 <path d="m16 4a2 2 0 0 0 -2 2 2 2 0 0 0 2 2 2 2 0 0 0 2 -2 2 2 0 0 0 -2 -2zm-5.046875 1.3398438a2 2 0 0 0 -0.953125 0.2675781 2 2 0 0 0 -0.7324219 2.7324219 2 2 0 0 0 2.7324219 0.7324218 2 2 0 0 0 0.732422 -2.7324218 2 2 0 0 0 -1.779297 -1zm9.953125 0.0019531a2 2 0 0 0 -1.638672 0.9980469 2 2 0 0 0 0.732422 2.7324218 2 2 0 0 0 2.732422 -0.7324218 2 2 0 0 0 -0.732422 -2.7324219 2 2 0 0 0 -1.09375 -0.265625zm3.707031 3.6582031a2 2 0 0 0 -0.953125 0.2675781 2 2 0 0 0 -0.732422 2.7324219 2 2 0 0 0 2.732422 0.732422 2 2 0 0 0 0.732422 -2.732422 2 2 0 0 0 -1.779297 -1zm-17.367187 0.0019531a2 2 0 0 0 -1.6386719 0.9980469 2 2 0 0 0 0.7324219 2.732422 2 2 0 0 0 2.7324218 -0.732422 2 2 0 0 0 -0.7324218 -2.7324219 2 2 0 0 0 -1.09375 -0.265625zm-1.2460938 4.9980469a2 2 0 0 0 -2 2 2 2 0 0 0 2 2 2 2 0 0 0 2 -2 2 2 0 0 0 -2 -2zm20 0a2 2 0 0 0 -2 2 2 2 0 0 0 2 2 2 2 0 0 0 2 -2 2 2 0 0 0 -2 -2zm-18.707031 5a2 2 0 0 0 -0.953125 0.267578 2 2 0 0 0 -0.7324219 2.732422 2 2 0 0 0 2.7324219 0.732422 2 2 0 0 0 0.7324218 -2.732422 2 2 0 0 0 -1.7792968 -1zm17.273437 0.001953a2 2 0 0 0 -1.638672 0.998047 2 2 0 0 0 0.732422 2.732422 2 2 0 0 0 2.732422 -0.732422 2 2 0 0 0 -0.732422 -2.732422 2 2 0 0 0 -1.09375 -0.265625zm-3.613281 3.658203a2 2 0 0 0 -0.953125 0.267578 2 2 0 0 0 -0.732422 2.732422 2 2 0 0 0 2.732422 0.732422 2 2 0 0 0 0.732422 -2.732422 2 2 0 0 0 -1.779297 -1zm-10.046875 0.001953a2 2 0 0 0 -1.6386719 0.998047 2 2 0 0 0 0.7324219 2.732422 2 2 0 0 0 2.732422 -0.732422 2 2 0 0 0 -0.732422 -2.732422 2 2 0 0 0 -1.09375 -0.265625zm5.09375 1.337891a2 2 0 0 0 -2 2 2 2 0 0 0 2 2 2 2 0 0 0 2 -2 2 2 0 0 0 -2 -2z" style="fill:#ffffff"/>
 <circle cx="16" cy="16" r="5" style="opacity:.3"/>
 <path d="M 13,8.4999998 A 5.5000002,5.5000002 0 0 1 7.5000001,14 5.5000002,5.5000002 0 0 1 2.0000004,8.4999998 5.5000002,5.5000002 0 0 1 7.5000001,2.9999999 5.5000002,5.5000002 0 0 1 13,8.4999998 Z" style="opacity:.2"/>
 <path d="M 13,7.4999998 A 5.5000002,5.5000002 0 0 1 7.5000001,13 5.5000002,5.5000002 0 0 1 2.0000004,7.4999998 5.5000002,5.5000002 0 0 1 7.5000001,1.9999999 5.5000002,5.5000002 0 0 1 13,7.4999998 Z" style="fill:#ffae4a"/>
 <path d="m21.552287 19.000476c-0.346421-0.01114-0.39248 0.171806-0.494733 0.656337-0.514586 3.189986 2.485758 4.959892 6.427923 6.338838 1.152157 0.09924 1.390483-1.524204 1.76062-2.405773 0.47962-1.142324 1.248045-2.166904 0.311517-2.637662l-7.546446-1.879197c-0.195935-0.04275-0.343406-0.06884-0.458881-0.07254z" style="opacity:.2"/>
 <path d="m21.552287 18.000476c-0.346421-0.01114-0.39248 0.171806-0.494733 0.656337-0.514586 3.189986 2.485758 4.959892 6.427923 6.338838 1.152157 0.09924 1.390483-1.524204 1.76062-2.405773 0.47962-1.142324 1.248045-2.166904 0.311517-2.637662l-7.546446-1.879197c-0.195935-0.04275-0.343406-0.06884-0.458881-0.07254z" style="fill:#8e8e8e"/>
 <path d="M 7.5 2 A 5.5000002 5.5000002 0 0 0 2 7.5 A 5.5000002 5.5000002 0 0 0 2.0253906 7.9863281 A 5.5000002 5.5000002 0 0 1 7.5 3 A 5.5000002 5.5000002 0 0 1 12.974609 8.0136719 A 5.5000002 5.5000002 0 0 0 13 7.5 A 5.5000002 5.5000002 0 0 0 7.5 2 z" style="fill:#ffffff;opacity:.2"/>
 <path d="m21.552734 18c-0.346421-0.01114-0.39384 0.171719-0.496093 0.65625-0.068915 0.427211-0.070519 0.828287-0.019532 1.207031 0.007994-0.069528 0.008091-0.13611 0.019532-0.207031 0.102253-0.484531 0.149672-0.66739 0.496093-0.65625 0.115475 0.0037 0.26305 0.029516 0.458985 0.072266l7.544922 1.880859c0.139417 0.07008 0.232307 0.154859 0.302734 0.248047 0.195906-0.535887 0.222792-0.983885-0.302734-1.248047l-7.544922-1.880859c-0.195935-0.04275-0.34351-0.068566-0.458985-0.072266z" style="fill:#ffffff;opacity:.2"/>
</svg>

<svg xmlns="http://www.w3.org/2000/svg" width="32" height="32" version="1.1" viewBox="0 0 32 32">
 <circle cx="16" cy="17" r="14" style="opacity:0.2"/>
 <circle style="fill:#4f4f4f" cx="16" cy="16" r="14"/>
 <path style="fill:#ffffff;opacity:0.1" d="M 16 2 A 14 14 0 0 0 2 16 A 14 14 0 0 0 2.0214844 16.585938 A 14 14 0 0 1 16 3 A 14 14 0 0 1 29.978516 16.414062 A 14 14 0 0 0 30 16 A 14 14 0 0 0 16 2 z"/>
 <path d="M 16,5 A 2,2 0 0 0 14,7 2,2 0 0 0 16,9 2,2 0 0 0 18,7 2,2 0 0 0 16,5 Z M 10.953125,6.3398438 A 2,2 0 0 0 10,6.6074219 2,2 0 0 0 9.2675781,9.3398438 2,2 0 0 0 12,10.072266 a 2,2 0 0 0 0.732422,-2.7324222 2,2 0 0 0 -1.779297,-1 z m 9.953125,0.00195 A 2,2 0 0 0 19.267578,7.3398438 2,2 0 0 0 20,10.072266 2,2 0 0 0 22.732422,9.3398438 2,2 0 0 0 22,6.6074219 2,2 0 0 0 20.90625,6.3417969 Z M 24.613281,10 A 2,2 0 0 0 23.660156,10.267578 2,2 0 0 0 22.927734,13 2,2 0 0 0 25.660156,13.732422 2,2 0 0 0 26.392578,11 2,2 0 0 0 24.613281,10 Z m -17.3671872,0.002 A 2,2 0 0 0 5.6074219,11 2,2 0 0 0 6.3398438,13.732422 2,2 0 0 0 9.0722656,13 2,2 0 0 0 8.3398438,10.267578 2,2 0 0 0 7.2460938,10.001953 Z M 6,15 a 2,2 0 0 0 -2,2 2,2 0 0 0 2,2 2,2 0 0 0 2,-2 2,2 0 0 0 -2,-2 z m 20,0 a 2,2 0 0 0 -2,2 2,2 0 0 0 2,2 2,2 0 0 0 2,-2 2,2 0 0 0 -2,-2 z M 7.2929688,20 A 2,2 0 0 0 6.3398438,20.267578 2,2 0 0 0 5.6074219,23 2,2 0 0 0 8.3398438,23.732422 2,2 0 0 0 9.0722656,21 2,2 0 0 0 7.2929688,20 Z m 17.2734372,0.002 A 2,2 0 0 0 22.927734,21 2,2 0 0 0 23.660156,23.732422 2,2 0 0 0 26.392578,23 2,2 0 0 0 25.660156,20.267578 2,2 0 0 0 24.566406,20.001953 Z m -3.613281,3.658203 A 2,2 0 0 0 20,23.927734 2,2 0 0 0 19.267578,26.660156 2,2 0 0 0 22,27.392578 a 2,2 0 0 0 0.732422,-2.732422 2,2 0 0 0 -1.779297,-1 z m -10.046875,0.002 A 2,2 0 0 0 9.2675781,24.660156 2,2 0 0 0 10,27.392578 2,2 0 0 0 12.732422,26.660156 2,2 0 0 0 12,23.927734 2,2 0 0 0 10.90625,23.662109 Z M 16,25 a 2,2 0 0 0 -2,2 2,2 0 0 0 2,2 2,2 0 0 0 2,-2 2,2 0 0 0 -2,-2 z" style="opacity:0.2"/>
 <path style="fill:#ffffff" d="M 16 4 A 2 2 0 0 0 14 6 A 2 2 0 0 0 16 8 A 2 2 0 0 0 18 6 A 2 2 0 0 0 16 4 z M 10.953125 5.3398438 A 2 2 0 0 0 10 5.6074219 A 2 2 0 0 0 9.2675781 8.3398438 A 2 2 0 0 0 12 9.0722656 A 2 2 0 0 0 12.732422 6.3398438 A 2 2 0 0 0 10.953125 5.3398438 z M 20.90625 5.3417969 A 2 2 0 0 0 19.267578 6.3398438 A 2 2 0 0 0 20 9.0722656 A 2 2 0 0 0 22.732422 8.3398438 A 2 2 0 0 0 22 5.6074219 A 2 2 0 0 0 20.90625 5.3417969 z M 24.613281 9 A 2 2 0 0 0 23.660156 9.2675781 A 2 2 0 0 0 22.927734 12 A 2 2 0 0 0 25.660156 12.732422 A 2 2 0 0 0 26.392578 10 A 2 2 0 0 0 24.613281 9 z M 7.2460938 9.0019531 A 2 2 0 0 0 5.6074219 10 A 2 2 0 0 0 6.3398438 12.732422 A 2 2 0 0 0 9.0722656 12 A 2 2 0 0 0 8.3398438 9.2675781 A 2 2 0 0 0 7.2460938 9.0019531 z M 6 14 A 2 2 0 0 0 4 16 A 2 2 0 0 0 6 18 A 2 2 0 0 0 8 16 A 2 2 0 0 0 6 14 z M 26 14 A 2 2 0 0 0 24 16 A 2 2 0 0 0 26 18 A 2 2 0 0 0 28 16 A 2 2 0 0 0 26 14 z M 7.2929688 19 A 2 2 0 0 0 6.3398438 19.267578 A 2 2 0 0 0 5.6074219 22 A 2 2 0 0 0 8.3398438 22.732422 A 2 2 0 0 0 9.0722656 20 A 2 2 0 0 0 7.2929688 19 z M 24.566406 19.001953 A 2 2 0 0 0 22.927734 20 A 2 2 0 0 0 23.660156 22.732422 A 2 2 0 0 0 26.392578 22 A 2 2 0 0 0 25.660156 19.267578 A 2 2 0 0 0 24.566406 19.001953 z M 20.953125 22.660156 A 2 2 0 0 0 20 22.927734 A 2 2 0 0 0 19.267578 25.660156 A 2 2 0 0 0 22 26.392578 A 2 2 0 0 0 22.732422 23.660156 A 2 2 0 0 0 20.953125 22.660156 z M 10.90625 22.662109 A 2 2 0 0 0 9.2675781 23.660156 A 2 2 0 0 0 10 26.392578 A 2 2 0 0 0 12.732422 25.660156 A 2 2 0 0 0 12 22.927734 A 2 2 0 0 0 10.90625 22.662109 z M 16 24 A 2 2 0 0 0 14 26 A 2 2 0 0 0 16 28 A 2 2 0 0 0 18 26 A 2 2 0 0 0 16 24 z"/>
 <circle style="opacity:0.3" cx="16" cy="16" r="5"/>
 <path d="M 13,8.4999998 A 5.5000002,5.5000002 0 0 1 7.5000001,14 5.5000002,5.5000002 0 0 1 2.0000004,8.4999998 5.5000002,5.5000002 0 0 1 7.5000001,2.9999999 5.5000002,5.5000002 0 0 1 13,8.4999998 Z" style="opacity:0.2"/>
 <path style="fill:#ffae4a" d="M 13,7.4999998 A 5.5000002,5.5000002 0 0 1 7.5000001,13 5.5000002,5.5000002 0 0 1 2.0000004,7.4999998 5.5000002,5.5000002 0 0 1 7.5000001,1.9999999 5.5000002,5.5000002 0 0 1 13,7.4999998 Z"/>
 <path d="m 21.552287,19.000476 c -0.346421,-0.01114 -0.39248,0.171806 -0.494733,0.656337 -0.514586,3.189986 2.485758,4.959892 6.427923,6.338838 1.152157,0.09924 1.390483,-1.524204 1.76062,-2.405773 0.47962,-1.142324 1.248045,-2.166904 0.311517,-2.637662 l -7.546446,-1.879197 c -0.195935,-0.04275 -0.343406,-0.06884 -0.458881,-0.07254 z" style="opacity:0.2"/>
 <path style="fill:#8e8e8e" d="m 21.552287,18.000476 c -0.346421,-0.01114 -0.39248,0.171806 -0.494733,0.656337 -0.514586,3.189986 2.485758,4.959892 6.427923,6.338838 1.152157,0.09924 1.390483,-1.524204 1.76062,-2.405773 0.47962,-1.142324 1.248045,-2.166904 0.311517,-2.637662 l -7.546446,-1.879197 c -0.195935,-0.04275 -0.343406,-0.06884 -0.458881,-0.07254 z"/>
 <path style="opacity:0.2;fill:#ffffff" d="M 7.5 2 A 5.5000002 5.5000002 0 0 0 2 7.5 A 5.5000002 5.5000002 0 0 0 2.0253906 7.9863281 A 5.5000002 5.5000002 0 0 1 7.5 3 A 5.5000002 5.5000002 0 0 1 12.974609 8.0136719 A 5.5000002 5.5000002 0 0 0 13 7.5 A 5.5000002 5.5000002 0 0 0 7.5 2 z"/>
 <path style="fill:#ffffff;opacity:0.2" d="M 21.552734 18 C 21.206313 17.98886 21.158894 18.171719 21.056641 18.65625 C 20.987726 19.083461 20.986122 19.484537 21.037109 19.863281 C 21.045103 19.793753 21.0452 19.727171 21.056641 19.65625 C 21.158894 19.171719 21.206313 18.98886 21.552734 19 C 21.668209 19.0037 21.815784 19.029516 22.011719 19.072266 L 29.556641 20.953125 C 29.696058 21.023205 29.788948 21.107984 29.859375 21.201172 C 30.055281 20.665285 30.082167 20.217287 29.556641 19.953125 L 22.011719 18.072266 C 21.815784 18.029516 21.668209 18.0037 21.552734 18 z"/>
</svg>
